X: 9446
T: Dans Plinn
R: mazurka
M: 3/4
K: Dmajor
e2 Bd c2|c2 ed/c/ Bd|c2 c2 e2|Ad c2 c2|ed/c/ Bd c2|
c2 e2 eB|dc B2 cd|cB A2 A2|e2 eB dc|
B2 cd cB|A2 A2 Bc/B/|Ac B2 BA|Bc Ac B2|
B2 Bc/B/ Ac|B2 BA Bc|d>c B2 B2|cd e>f ec|
d2 dB Bd|cB A2 cd|e>f ec d>d c/|Bc BA B2|
B2 cd e>f|ec d2 dB|Bd cB A2|cd e>f ec|
d>d c/ Bc BA|B2 B2 Bc/B/|Ac B2 BA|Bc Ac B2|
B2 Bc/B/ Ac|B2 BA Bc|d>c B2 B2|cd e>f ec|
d2 dB Bd|cB A2 cd|e>f ec d>d c/|Bc BA B2|
B2 cd e>f|ec d2 dB|Bd cB A2|cd e>f ec|
d>d c/ Bc BA|B2 B2|

